silniq.svg

<?xml version="1.0" encoding="UTF-8" standalone="no"?>
<!-- Created with Inkscape (http://www.inkscape.org/) -->

<svg
   xmlns:dc="http://purl.org/dc/elements/1.1/"
   xmlns:cc="http://creativecommons.org/ns#"
   xmlns:rdf="http://www.w3.org/1999/02/22-rdf-syntax-ns#"
   xmlns:svg="http://www.w3.org/2000/svg"
   xmlns="http://www.w3.org/2000/svg"
   xmlns:sodipodi="http://sodipodi.sourceforge.net/DTD/sodipodi-0.dtd"
   xmlns:inkscape="http://www.inkscape.org/namespaces/inkscape"
   width="744.09448819"
   height="1052.3622047"
   id="svg2"
   version="1.1"
   inkscape:version="0.48.4 r9939"
   sodipodi:docname="silniq.svg"
   inkscape:export-filename="/home/kuba/Projects/logo/silniq.png"
   inkscape:export-xdpi="90"
   inkscape:export-ydpi="90">
  <defs
     id="defs4" />
  <sodipodi:namedview
     id="base"
     pagecolor="#ffffff"
     bordercolor="#666666"
     borderopacity="1.0"
     inkscape:pageopacity="0.0"
     inkscape:pageshadow="2"
     inkscape:zoom="1.3594532"
     inkscape:cx="392.96048"
     inkscape:cy="609.55124"
     inkscape:document-units="px"
     inkscape:current-layer="layer1"
     showgrid="false"
     showguides="true"
     inkscape:guide-bbox="true"
     inkscape:window-width="1276"
     inkscape:window-height="760"
     inkscape:window-x="0"
     inkscape:window-y="18"
     inkscape:window-maximized="0">
    <inkscape:grid
       type="xygrid"
       id="grid2993" />
  </sodipodi:namedview>
  <metadata
     id="metadata7">
    <rdf:RDF>
      <cc:Work
         rdf:about="">
        <dc:format>image/svg+xml</dc:format>
        <dc:type
           rdf:resource="http://purl.org/dc/dcmitype/StillImage" />
        <dc:title></dc:title>
      </cc:Work>
    </rdf:RDF>
  </metadata>
  <g
     inkscape:label="Layer 1"
     inkscape:groupmode="layer"
     id="layer1">
    <path
       style="fill:#000000;stroke:#000000;stroke-width:1.16214716;stroke-opacity:1"
       d="m 327.53183,684.93095 5.04631,-14.6555 c 12.98329,3.56968 26.07075,5.32511 39.00309,5.36545 l 0.94512,15.39655 19.14432,-1.17502 -0.94512,-15.39648 c 13.14113,-1.66502 25.94122,-5.07721 38.06814,-10.0606 l 6.78071,13.90246 17.23909,-8.40804 -6.7807,-13.90253 c 11.39307,-6.48806 21.96246,-14.4739 31.36497,-23.8042 l 11.55077,10.2238 12.7123,-14.36248 -11.55077,-10.22381 c 7.92296,-10.21021 14.60795,-21.61815 19.78469,-34.03822 l 14.65549,5.0463 6.24686,-18.14213 -14.6555,-5.04631 c 3.56715,-12.97424 5.32281,-26.07953 5.36545,-39.00309 l 15.39655,-0.94512 -1.17502,-19.14432 -15.39648,0.94512 c -1.66502,-13.14113 -5.07721,-25.94122 -10.0606,-38.06814 l 13.90246,-6.78071 -8.40804,-17.23909 -13.90253,6.7807 c -6.48806,-11.39307 -14.4739,-21.96246 -23.8042,-31.36497 l 10.2238,-11.55077 -14.36248,-12.7123 -10.22381,11.55077 c -10.21565,-7.93017 -21.60956,-14.6043 -34.03822,-19.78469 l 5.0463,-14.65549 -18.14213,-6.24686 -5.04631,14.6555 c -12.97424,-3.56715 -26.07953,-5.32281 -39.00309,-5.36545 l -0.94512,-15.39655 -19.14432,1.17502 0.94512,15.39648 c -13.14113,1.66502 -25.94122,5.07721 -38.06814,10.0606 l -6.78071,-13.90246 -17.23909,8.40804 6.7807,13.90253 c -11.39772,6.48928 -21.95913,14.47061 -31.36497,23.8042 l -11.55077,-10.2238 -12.7123,14.36248 11.55077,10.22381 c -7.92315,10.21041 -14.63741,21.60766 -19.81423,34.02806 l -14.62595,-5.03614 -6.24686,18.14213 14.626,5.03614 c -3.56737,12.97452 -5.29329,26.08939 -5.33595,39.01326 l -15.39655,0.94512 1.17502,19.14432 15.39648,-0.94512 c 1.6656,13.14581 5.07433,25.93741 10.0606,38.06814 l -13.90246,6.78071 8.40804,17.23909 13.90253,-6.7807 c 6.48806,11.39307 14.4739,21.96246 23.8042,31.36497 l -10.2238,11.55077 14.36248,12.7123 10.22381,-11.55077 c 10.21021,7.92296 21.61815,14.60795 34.03822,19.78469 l -5.0463,14.65549 18.14213,6.24686 z m 19.50608,-41.86791 33.93033,-98.54081 98.57028,33.94046 c -23.9413,49.37652 -78.85217,76.14793 -132.50064,64.60031 z m -27.27227,-9.39067 C 270.3985,609.73562 243.62419,554.8401 255.15516,501.2013 l 98.54074,33.93033 -33.93026,98.54074 z m 169.17368,-82.51149 -98.57032,-33.9405 33.93031,-98.54075 c 49.38496,23.92964 76.1732,78.83233 64.64003,132.48124 z M 363.0967,507.82975 264.55596,473.89949 c 23.93675,-49.36714 78.83227,-76.14145 132.47107,-64.61048 l -33.93033,98.54074 z"
       id="path2985"
       inkscape:connector-curvature="0" />
    <path
       style="fill:#000000;stroke:#ffffff;stroke-width:5;stroke-linecap:butt;stroke-linejoin:round;stroke-miterlimit:10;stroke-opacity:1;stroke-dasharray:none"
       d="m 356.48472,441.40852 -6.21875,18.75 C 335.69033,464.94219 323.6235,472.44684 315,484.76148 c -6.5164,0.0548 -13.03112,-0.0426 -19.54653,-0.13421 l -9.6875,29.84375 15.96875,11.8125 c 1.41005,14.28726 5.87366,31.14516 13.9688,42.34375 l -5.90625,18.65625 25.40625,18.46875 16.125,-11.5625 c 4.04295,0.76989 15.08036,2.873 20.84375,2.90625 7.43242,0 14.58965,-1.14238 21.3125,-3.28125 l 16.15625,11.5625 25.375,-18.4375 -6,-18.90625 c 8.38513,-11.56748 13.375,-25.77288 13.375,-41.15625 0,-0.14446 8.5e-4,-0.29319 0,-0.4375 l 15.9375,-11.75 -9.71875,-29.875 -19.84375,-0.15625 c -9.04223,-8.68596 -21.33109,-19.93731 -34.65625,-24.5 l -6.21875,-18.75 -31.40625,0 z"
       id="path3177"
       inkscape:connector-curvature="0"
       sodipodi:nodetypes="cccccccccccccccscccccccc" />
    <path
       sodipodi:type="arc"
       style="fill:#ffffff;fill-opacity:1;stroke:none;stroke-width:0;stroke-linecap:butt;stroke-linejoin:round;stroke-miterlimit:10;stroke-opacity:1;stroke-dasharray:none"
       id="path4217"
       sodipodi:cx="680"
       sodipodi:cy="627.36218"
       sodipodi:rx="50"
       sodipodi:ry="55"
       d="m 730,627.36218 a 50,55 0 1 1 -100,0 50,55 0 1 1 100,0 z"
       transform="matrix(0.65,0,0,0.59090909,-68.45276,153.96707)" />
    <path
       style="fill:#666666;fill-opacity:1;stroke:#ffffff;stroke-width:5;stroke-miterlimit:4;stroke-dasharray:none;stroke-opacity:1"
       d="m 258.2725,433.0128 186.26161,214.55347 c 17.04287,17.04287 42.73187,19.0074 57.37664,4.36262 14.64478,-14.64477 12.69924,-40.35275 -4.34363,-57.39562 L 282.57693,408.70838 z"
       id="path4223"
       inkscape:connector-curvature="0"
       sodipodi:nodetypes="ccsccc" />
    <path
       style="fill:#333333;fill-opacity:1;stroke:#ffffff;stroke-width:5;stroke-miterlimit:4;stroke-opacity:1;stroke-dasharray:none"
       d="m 192.96875,260.59375 0,26.1875 169.09375,0 0,-26.1875 z m 0,31.1875 0,22.34375 169.09375,0 0,-22.34375 z m 0,27.34375 0,22.34375 169.09375,0 0,-22.34375 z m 0,27.34375 0,82.49949 c 59.33094,34.37194 115.64745,34.28088 169.09375,0 l 0,-82.49949 z"
       id="rect4229"
       inkscape:connector-curvature="0"
       sodipodi:nodetypes="cccccccccccccccccccc" />
    <path
       sodipodi:type="arc"
       style="fill:#666666;fill-opacity:1;stroke:#ffffff;stroke-width:13.69306373999999948;stroke-miterlimit:4;stroke-opacity:1;stroke-dasharray:none"
       id="path4231"
       sodipodi:cx="520"
       sodipodi:cy="662.36218"
       sodipodi:rx="60"
       sodipodi:ry="50"
       d="m 580,662.36218 a 60,50 0 1 1 -120,0 60,50 0 1 1 120,0 z"
       transform="matrix(0.33333333,0,0,0.4,297.83959,355.32951)" />
    <path
       sodipodi:type="arc"
       style="fill:#333333;fill-opacity:1;stroke:#ffffff;stroke-width:13.69306373999999948;stroke-miterlimit:4;stroke-opacity:1;stroke-dasharray:none"
       id="path4231-7"
       sodipodi:cx="520"
       sodipodi:cy="662.36218"
       sodipodi:rx="60"
       sodipodi:ry="50"
       d="m 580,662.36218 a 60,50 0 1 1 -120,0 60,50 0 1 1 120,0 z"
       transform="matrix(0.33333333,0,0,0.4,104.18229,150.23901)" />
  </g>
</svg>

<?xml version="1.0" encoding="UTF-8" standalone="no"?>
<!-- Created with Inkscape (http://www.inkscape.org/) -->

<svg
   xmlns:dc="http://purl.org/dc/elements/1.1/"
   xmlns:cc="http://creativecommons.org/ns#"
   xmlns:rdf="http://www.w3.org/1999/02/22-rdf-syntax-ns#"
   xmlns:svg="http://www.w3.org/2000/svg"
   xmlns="http://www.w3.org/2000/svg"
   xmlns:sodipodi="http://sodipodi.sourceforge.net/DTD/sodipodi-0.dtd"
   xmlns:inkscape="http://www.inkscape.org/namespaces/inkscape"
   width="744.09448819"
   height="1052.3622047"
   id="svg2"
   version="1.1"
   inkscape:version="0.48.4 r9939"
   sodipodi:docname="drawing.svg"
   inkscape:export-filename="/home/kuba/Dropbox/drawing-color.png"
   inkscape:export-xdpi="90"
   inkscape:export-ydpi="90">
  <defs
     id="defs4" />
  <sodipodi:namedview
     id="base"
     pagecolor="#ffffff"
     bordercolor="#666666"
     borderopacity="1.0"
     inkscape:pageopacity="0.0"
     inkscape:pageshadow="2"
     inkscape:zoom="0.67972659"
     inkscape:cx="471.47954"
     inkscape:cy="547.82577"
     inkscape:document-units="px"
     inkscape:current-layer="layer1"
     showgrid="false"
     showguides="true"
     inkscape:guide-bbox="true"
     inkscape:window-width="1280"
     inkscape:window-height="745"
     inkscape:window-x="0"
     inkscape:window-y="27"
     inkscape:window-maximized="1">
    <inkscape:grid
       type="xygrid"
       id="grid2993" />
  </sodipodi:namedview>
  <metadata
     id="metadata7">
    <rdf:RDF>
      <cc:Work
         rdf:about="">
        <dc:format>image/svg+xml</dc:format>
        <dc:type
           rdf:resource="http://purl.org/dc/dcmitype/StillImage" />
        <dc:title></dc:title>
      </cc:Work>
    </rdf:RDF>
  </metadata>
  <g
     inkscape:label="Layer 1"
     inkscape:groupmode="layer"
     id="layer1">
    <path
       style="fill:#000000;stroke:#000000;stroke-width:1.16214716;stroke-opacity:1"
       d="m 327.53183,684.93095 5.04631,-14.6555 c 12.98329,3.56968 26.07075,5.32511 39.00309,5.36545 l 0.94512,15.39655 19.14432,-1.17502 -0.94512,-15.39648 c 13.14113,-1.66502 25.94122,-5.07721 38.06814,-10.0606 l 6.78071,13.90246 17.23909,-8.40804 -6.7807,-13.90253 c 11.39307,-6.48806 21.96246,-14.4739 31.36497,-23.8042 l 11.55077,10.2238 12.7123,-14.36248 -11.55077,-10.22381 c 7.92296,-10.21021 14.60795,-21.61815 19.78469,-34.03822 l 14.65549,5.0463 6.24686,-18.14213 -14.6555,-5.04631 c 3.56715,-12.97424 5.32281,-26.07953 5.36545,-39.00309 l 15.39655,-0.94512 -1.17502,-19.14432 -15.39648,0.94512 c -1.66502,-13.14113 -5.07721,-25.94122 -10.0606,-38.06814 l 13.90246,-6.78071 -8.40804,-17.23909 -13.90253,6.7807 c -6.48806,-11.39307 -14.4739,-21.96246 -23.8042,-31.36497 l 10.2238,-11.55077 -14.36248,-12.7123 -10.22381,11.55077 c -10.21565,-7.93017 -21.60956,-14.6043 -34.03822,-19.78469 l 5.0463,-14.65549 -18.14213,-6.24686 -5.04631,14.6555 c -12.97424,-3.56715 -26.07953,-5.32281 -39.00309,-5.36545 l -0.94512,-15.39655 -19.14432,1.17502 0.94512,15.39648 c -13.14113,1.66502 -25.94122,5.07721 -38.06814,10.0606 l -6.78071,-13.90246 -17.23909,8.40804 6.7807,13.90253 c -11.39772,6.48928 -21.95913,14.47061 -31.36497,23.8042 l -11.55077,-10.2238 -12.7123,14.36248 11.55077,10.22381 c -7.92315,10.21041 -14.63741,21.60766 -19.81423,34.02806 l -14.62595,-5.03614 -6.24686,18.14213 14.626,5.03614 c -3.56737,12.97452 -5.29329,26.08939 -5.33595,39.01326 l -15.39655,0.94512 1.17502,19.14432 15.39648,-0.94512 c 1.6656,13.14581 5.07433,25.93741 10.0606,38.06814 l -13.90246,6.78071 8.40804,17.23909 13.90253,-6.7807 c 6.48806,11.39307 14.4739,21.96246 23.8042,31.36497 l -10.2238,11.55077 14.36248,12.7123 10.22381,-11.55077 c 10.21021,7.92296 21.61815,14.60795 34.03822,19.78469 l -5.0463,14.65549 18.14213,6.24686 z m 19.50608,-41.86791 33.93033,-98.54081 98.57028,33.94046 c -23.9413,49.37652 -78.85217,76.14793 -132.50064,64.60031 z m -27.27227,-9.39067 C 270.3985,609.73562 243.62419,554.8401 255.15516,501.2013 l 98.54074,33.93033 -33.93026,98.54074 z m 169.17368,-82.51149 -98.57032,-33.9405 33.93031,-98.54075 c 49.38496,23.92964 76.1732,78.83233 64.64003,132.48124 z M 363.0967,507.82975 264.55596,473.89949 c 23.93675,-49.36714 78.83227,-76.14145 132.47107,-64.61048 l -33.93033,98.54074 z"
       id="path2985"
       inkscape:connector-curvature="0" />
    <path
       style="fill:#000000;stroke:#ffffff;stroke-width:5;stroke-linecap:butt;stroke-linejoin:round;stroke-miterlimit:10;stroke-opacity:1;stroke-dasharray:none"
       d="m 356.48472,441.40852 -6.21875,18.75 C 335.69033,464.94219 323.6235,472.44684 315,484.76148 c -6.5164,0.0548 -13.03112,-0.0426 -19.54653,-0.13421 l -9.6875,29.84375 15.96875,11.8125 c 1.41005,14.28726 5.87366,31.14516 13.9688,42.34375 l -5.90625,18.65625 25.40625,18.46875 16.125,-11.5625 c 4.04295,0.76989 15.08036,2.873 20.84375,2.90625 7.43242,0 14.58965,-1.14238 21.3125,-3.28125 l 16.15625,11.5625 25.375,-18.4375 -6,-18.90625 c 8.38513,-11.56748 13.375,-25.77288 13.375,-41.15625 0,-0.14446 8.5e-4,-0.29319 0,-0.4375 l 15.9375,-11.75 -9.71875,-29.875 -19.84375,-0.15625 c -9.04223,-8.68596 -21.33109,-19.93731 -34.65625,-24.5 l -6.21875,-18.75 -31.40625,0 z"
       id="path3177"
       inkscape:connector-curvature="0"
       sodipodi:nodetypes="cccccccccccccccscccccccc" />
    <path
       sodipodi:type="arc"
       style="fill:#ffffff;fill-opacity:1;stroke:none;stroke-width:0;stroke-linecap:butt;stroke-linejoin:round;stroke-miterlimit:10;stroke-opacity:1;stroke-dasharray:none"
       id="path4217"
       sodipodi:cx="680"
       sodipodi:cy="627.36218"
       sodipodi:rx="50"
       sodipodi:ry="55"
       d="m 730,627.36218 a 50,55 0 1 1 -100,0 50,55 0 1 1 100,0 z"
       transform="matrix(0.65,0,0,0.59090909,-68.45276,153.96707)" />
    <path
       style="fill:#666666;fill-opacity:1;stroke:#ffffff;stroke-width:5;stroke-miterlimit:4;stroke-dasharray:none;stroke-opacity:1"
       d="m 258.2725,433.0128 186.26161,214.55347 c 17.04287,17.04287 42.73187,19.0074 57.37664,4.36262 14.64478,-14.64477 12.69924,-40.35275 -4.34363,-57.39562 L 282.57693,408.70838 z"
       id="path4223"
       inkscape:connector-curvature="0"
       sodipodi:nodetypes="ccsccc" />
    <path
       style="fill:#333333;fill-opacity:1;stroke:#ffffff;stroke-opacity:1;stroke-width:5;stroke-miterlimit:4;stroke-dasharray:none"
       d="M 192.96875 260.59375 L 192.96875 286.78125 L 362.0625 286.78125 L 362.0625 260.59375 L 192.96875 260.59375 z M 192.96875 291.78125 L 192.96875 314.125 L 362.0625 314.125 L 362.0625 291.78125 L 192.96875 291.78125 z M 192.96875 319.125 L 192.96875 341.46875 L 362.0625 341.46875 L 362.0625 319.125 L 192.96875 319.125 z M 192.96875 346.46875 L 192.96875 457.65625 L 362.0625 457.65625 L 362.0625 346.46875 L 192.96875 346.46875 z "
       id="rect4229" />
    <path
       sodipodi:type="arc"
       style="fill:#666666;fill-opacity:1;stroke:#ffffff;stroke-width:13.69306373999999948;stroke-miterlimit:4;stroke-opacity:1;stroke-dasharray:none"
       id="path4231"
       sodipodi:cx="520"
       sodipodi:cy="662.36218"
       sodipodi:rx="60"
       sodipodi:ry="50"
       d="m 580,662.36218 a 60,50 0 1 1 -120,0 60,50 0 1 1 120,0 z"
       transform="matrix(0.33333333,0,0,0.4,297.83959,355.32951)" />
    <path
       sodipodi:type="arc"
       style="fill:#333333;fill-opacity:1;stroke:#ffffff;stroke-width:13.69306373999999948;stroke-miterlimit:4;stroke-opacity:1;stroke-dasharray:none"
       id="path4231-7"
       sodipodi:cx="520"
       sodipodi:cy="662.36218"
       sodipodi:rx="60"
       sodipodi:ry="50"
       d="m 580,662.36218 a 60,50 0 1 1 -120,0 60,50 0 1 1 120,0 z"
       transform="matrix(0.33333333,0,0,0.4,104.18229,150.23901)" />
  </g>
</svg>
